X: 2
T: Planxty George Brabazon
R: reel
M: 4/4
L: 1/8
K: Gmaj
|:g{f}e | d2 G2 cBAG | d2 G2 cBAG | e2 A2 ABcd | edcB A2 Bc |
d2 Bd g2 fg | edcB cBAG | BAGE DEGA | B2 G2 G2 ||
|: ga | b2 gb a2 fa | g2 fg edcB | e2 A2 ABcd | edcB A2 ga |
b2 gb a2 fa | g2 fg edcB | cBAG DEGA | B2 G2 G2 :||


Tune 1609	Setting 24922

